dist/assets/img/icons/yt.svg

<svg width="23" height="17" viewBox="0 0 23 17" fill="none" xmlns="http://www.w3.org/2000/svg">
<path fill-rule="evenodd" clip-rule="evenodd" d="M3.21236 0.886519C2.03361 0.987382 1.0443 1.7966 0.767356 2.94677C0.411422 4.42503 0 6.55451 0 8.5C0 10.4341 0.406617 12.55 0.761097 14.0272C1.04028 15.1906 2.0466 16.005 3.2391 16.1018C5.31037 16.27 8.66239 16.5 11.5 16.5C14.3839 16.5 17.7992 16.2624 19.8613 16.0936C21.0023 16.0002 21.9759 15.248 22.2574 14.1383C22.6074 12.7588 23 10.7172 23 8.5C23 6.26971 22.6028 4.21707 22.2513 2.83734C21.9719 1.74084 21.0145 0.992561 19.8872 0.895081C17.9457 0.727205 14.7229 0.5 11.5 0.5C8.3316 0.5 5.1632 0.719589 3.21236 0.886519ZM15.9722 8.5L8.94444 4.80769V12.1923L15.9722 8.5Z" fill="#83FFD3"/>
</svg>

<svg width="23" height="17" fill="none" xmlns="http://www.w3.org/2000/svg"><path fill-rule="evenodd" clip-rule="evenodd" d="M3.212.887c-1.178.1-2.168.91-2.445 2.06C.411 4.425 0 6.555 0 8.5c0 1.934.407 4.05.761 5.527.28 1.164 1.286 1.978 2.478 2.075 2.071.168 5.423.398 8.261.398 2.884 0 6.3-.238 8.361-.406 1.141-.094 2.115-.846 2.396-1.956.35-1.38.743-3.42.743-5.638 0-2.23-.397-4.283-.749-5.663-.28-1.096-1.236-1.844-2.364-1.942C17.946.727 14.723.5 11.5.5 8.332.5 5.163.72 3.212.887zM15.972 8.5L8.944 4.808v7.384L15.972 8.5z" fill="#83FFD3"/></svg>
